public/img/contact/email.svg

<svg width="48" height="48" viewBox="0 0 48 48" fill="none" xmlns="http://www.w3.org/2000/svg">
<rect x="1" y="1" width="46" height="46" rx="23" fill="white"/>
<rect x="1" y="1" width="46" height="46" rx="23" stroke="#303A4D" stroke-width="2"/>
<path fill-rule="evenodd" clip-rule="evenodd" d="M14.1913 15.995L21.2153 23.0221C22.7473 24.5511 25.2515 24.5525 26.7848 23.0221L33.8088 15.995C33.8796 15.9243 33.8693 15.8078 33.7872 15.7506C33.0708 15.2509 32.1991 14.9547 31.2602 14.9547H16.74C15.801 14.9547 14.9293 15.251 14.2129 15.7506C14.1309 15.8078 14.1205 15.9243 14.1913 15.995ZM12.3142 19.3805C12.3142 18.6421 12.4973 17.9445 12.8197 17.3313C12.8702 17.2353 12.998 17.216 13.0746 17.2926L20.0098 24.2277C22.2059 26.4271 25.793 26.4283 27.9904 24.2277L34.9256 17.2926C35.0022 17.216 35.13 17.2353 35.1804 17.3313C35.5029 17.9445 35.686 18.6421 35.686 19.3805V28.6194C35.686 31.0617 33.6994 33.0452 31.2602 33.0452H16.74C14.3009 33.0452 12.3142 31.0617 12.3142 28.6194V19.3805Z" fill="#303A4D"/>
</svg>

<svg width="48" height="48" fill="none" xmlns="http://www.w3.org/2000/svg"><rect x="1" y="1" width="46" height="46" rx="23" fill="#fff"/><rect x="1" y="1" width="46" height="46" rx="23" stroke="#303A4D" stroke-width="2"/><path fill-rule="evenodd" clip-rule="evenodd" d="m14.191 15.995 7.024 7.027a3.953 3.953 0 0 0 5.57 0l7.024-7.027a.16.16 0 0 0-.022-.244 4.406 4.406 0 0 0-2.527-.796H16.74c-.939 0-1.81.296-2.527.796a.16.16 0 0 0-.022.244zm-1.877 3.386c0-.739.183-1.436.506-2.05a.16.16 0 0 1 .255-.038l6.935 6.935a5.65 5.65 0 0 0 7.98 0l6.936-6.935a.16.16 0 0 1 .254.038c.323.614.506 1.311.506 2.05v9.238a4.43 4.43 0 0 1-4.426 4.426H16.74a4.43 4.43 0 0 1-4.426-4.426v-9.238z" fill="#303A4D"/></svg>
